src/assets/img/icons/savings-and-loans.svg

<svg width="80" height="80" viewBox="0 0 80 80" fill="none" xmlns="http://www.w3.org/2000/svg">
<path d="M42.5 0C37.3295 0 33.125 4.20453 33.125 9.375C33.125 14.5455 37.3295 18.75 42.5 18.75C47.6705 18.75 51.875 14.5455 51.875 9.375C51.875 4.20453 47.6705 0 42.5 0Z" fill="#389AFF"/>
<path d="M75.3125 35.4688V37.8125C75.3125 40.7119 72.7705 42.992 69.5833 42.3364C66.4594 31.6144 56.5608 23.75 44.8438 23.75H29.1847C28.5323 23.75 27.9189 23.4777 27.5023 23.0039C25.2892 20.4998 22.1008 19.0625 18.75 19.0625H11.7188C10.1992 19.0625 9.08422 20.4833 9.44141 21.9602L11.8148 31.7356C10.08 33.5484 8.63344 35.5855 7.49813 37.8125C2.80437 37.8125 0 41.1589 0 44.8438V51.7903C0 56.2402 3.445 57.8647 7.10906 60.4534C8.56016 63.5548 10.5858 66.2991 13.1402 68.6222C13.4858 68.9334 14.0625 69.5903 14.0625 70.4761V76.0036C14.0625 78.2078 15.8547 80 18.0588 80H26.4725C28.6639 80 30.4688 78.5172 30.4688 75.3125H44.8438C44.8438 78.5172 46.6486 80 48.84 80H57.2538C59.4578 80 61.25 78.2078 61.25 76.0038C61.25 72.4617 60.8487 70.0484 63.3214 67.5122C67.8555 62.8505 70.625 56.4931 70.625 49.5312C70.625 48.7364 70.5764 47.9531 70.5056 47.1764C70.5497 47.177 70.5945 47.1898 70.6386 47.1898C75.7741 47.1898 80 43.0127 80 37.8125V35.4688C80 32.3792 75.3125 32.3666 75.3125 35.4688ZM16.4062 44.8438C15.1119 44.8438 14.0625 43.7944 14.0625 42.5C14.0625 41.2053 15.1119 40.1562 16.4062 40.1562C17.7006 40.1562 18.75 41.2053 18.75 42.5C18.75 43.7944 17.7006 44.8438 16.4062 44.8438ZM44.8438 37.8125H34.1847C31.0952 37.8125 31.0825 33.125 34.1847 33.125H44.8438C47.9333 33.125 47.9459 37.8125 44.8438 37.8125Z" fill="#389AFF"/>
</svg>

<?xml version="1.0" encoding="utf-8"?>
<!-- Generator: Adobe Illustrator 24.0.0, SVG Export Plug-In . SVG Version: 6.00 Build 0)  -->
<svg version="1.1" id="Layer_1" xmlns="http://www.w3.org/2000/svg" xmlns:xlink="http://www.w3.org/1999/xlink" x="0px" y="0px"
	 viewBox="0 0 80 80" style="enable-background:new 0 0 80 80;" xml:space="preserve">
<style type="text/css">
	.st0{fill:#043F7C;}
</style>
<path class="st0" d="M42.5,0c-5.2,0-9.4,4.2-9.4,9.4c0,5.2,4.2,9.4,9.4,9.4s9.4-4.2,9.4-9.4C51.9,4.2,47.7,0,42.5,0z"/>
<path class="st0" d="M75.3,35.5v2.3c0,2.9-2.5,5.2-5.7,4.5c-3.1-10.7-13-18.6-24.7-18.6H29.2c-0.7,0-1.3-0.3-1.7-0.7
	c-2.2-2.5-5.4-3.9-8.8-3.9h-7c-1.5,0-2.6,1.4-2.3,2.9l2.4,9.8c-1.7,1.8-3.2,3.8-4.3,6.1c-4.7,0-7.5,3.3-7.5,7v6.9
	c0,4.4,3.4,6.1,7.1,8.7c1.5,3.1,3.5,5.8,6,8.2c0.3,0.3,0.9,1,0.9,1.9V76c0,2.2,1.8,4,4,4h8.4c2.2,0,4-1.5,4-4.7h14.4
	c0,3.2,1.8,4.7,4,4.7h8.4c2.2,0,4-1.8,4-4c0-3.5-0.4-6,2.1-8.5c4.5-4.7,7.3-11,7.3-18c0-0.8,0-1.6-0.1-2.4c0,0,0.1,0,0.1,0
	c5.1,0,9.4-4.2,9.4-9.4v-2.3C80,32.4,75.3,32.4,75.3,35.5z M16.4,44.8c-1.3,0-2.3-1-2.3-2.3c0-1.3,1-2.3,2.3-2.3
	c1.3,0,2.3,1,2.3,2.3C18.8,43.8,17.7,44.8,16.4,44.8z M44.8,37.8H34.2c-3.1,0-3.1-4.7,0-4.7h10.7C47.9,33.1,47.9,37.8,44.8,37.8z"/>
</svg>
